images/icons/close.svg

<svg width="12" height="13" viewBox="0 0 12 13" fill="none" xmlns="http://www.w3.org/2000/svg">
<path fill-rule="evenodd" clip-rule="evenodd" d="M6 8.18815L1.80265 12.3855L0 10.5828L4.19735 6.3855L0 2.18815L1.80265 0.385498L6 4.58284L10.1973 0.385498L12 2.18815L7.80265 6.3855L12 10.5828L10.1973 12.3855L6 8.18815Z" fill="#32425C"/>
</svg>

<svg width="12" height="13" fill="none" xmlns="http://www.w3.org/2000/svg"><path fill-rule="evenodd" clip-rule="evenodd" d="m6 8.19-4.2 4.2-1.8-1.8 4.2-4.2L0 2.19 1.8.39 6 4.59l4.2-4.2 1.8 1.8-4.2 4.2 4.2 4.2-1.8 1.8L6 8.19Z" fill="#32425C"/></svg>
